X: 457
%%etbk:tnset id:181,pos:4,rep:1x,ant:
%%etbk:skill ?
%%etbk:pldat 2013-05-09T17:15
T: Inion Ni Scannlian (Outro)
H: Created 2013-02-19 /  Last Modified 2013-05-09
R: waltz
M: 3/4
L: 1/8
K: Gmaj
 !3!B!4!d | !5!e3!4!d d!5!e | !3!B3A AB | !2!A3B A!1!G |
!2!E3D !2!(3EF!4!G | !2!A2AG A!3!B | !3!B!4!d d!5!e !3!BA | !3!B6- | B6 |
